X: 129
T:Martin Hayes' Jig
M:6/8
L:1/8
F:http://blackrosetheband.googlepages.com/ABCTUNES.ABC May 2009
K:D
A|:"D"DFA d2e|dcA "C"GFG|AFD =c2d|ed=c "G"(3Bcd B|
"D"DFA dfe|dcA "C"~G3|AdB cAG|1 "G"~E3 "D"DFE:|2 "A"~E3 "D"D3|
|:"D"d2e fed|"A"c2A ABA|"C"=cBcedc|"G"B2G GAG|
"D"FAd fed|"A"ceA EFG|AdB cAG|1 EDC "D"DFG:|2 EDC "D"DFE||

